svg/Pictogram/pictograms-hazard_signs-corrosif.svg

<?xml version="1.0" encoding="UTF-8" standalone="no"?>
<!-- Created with Inkscape (http://www.inkscape.org/) --><svg height="155.93201" id="svg2" inkscape:export-filename="/home/yves/Bureau/yves_guillou_corrosif.png" inkscape:export-xdpi="196" inkscape:export-ydpi="196" inkscape:output_extension="org.inkscape.output.svg.inkscape" inkscape:version="0.45+devel" sodipodi:docname="yves_guillou_corrosif.svg" sodipodi:version="0.32" version="1.0" width="155.93201" xmlns="http://www.w3.org/2000/svg" xmlns:cc="http://creativecommons.org/ns#" xmlns:dc="http://purl.org/dc/elements/1.1/" xmlns:inkscape="http://www.inkscape.org/namespaces/inkscape" xmlns:rdf="http://www.w3.org/1999/02/22-rdf-syntax-ns#" xmlns:sodipodi="http://sodipodi.sourceforge.net/DTD/sodipodi-0.dtd" xmlns:svg="http://www.w3.org/2000/svg">
  <metadata>
    <rdf:RDF xmlns:cc="http://web.resource.org/cc/" xmlns:dc="http://purl.org/dc/elements/1.1/" xmlns:rdf="http://www.w3.org/1999/02/22-rdf-syntax-ns#">
      <cc:Work rdf:about="">
        <dc:title></dc:title>
        <dc:description></dc:description>
        <dc:subject>
          <rdf:Bag>
            <rdf:li>unsorted</rdf:li>
          </rdf:Bag>
        </dc:subject>
        <dc:publisher>
          <cc:Agent rdf:about="http://www.openclipart.org/">
            <dc:title>Source: Open Clip Art Library, Source: Open Clip Art Library, Source: Open Clip Art Library</dc:title>
          </cc:Agent>
        </dc:publisher>
        <dc:creator>
          <cc:Agent>
            <dc:title>yves guillou</dc:title>
          </cc:Agent>
        </dc:creator>
        <dc:rights>
          <cc:Agent>
            <dc:title>yves guillou</dc:title>
          </cc:Agent>
        </dc:rights>
        <dc:date></dc:date>
        <dc:format>image/svg+xml</dc:format>
        <dc:type rdf:resource="http://purl.org/dc/dcmitype/StillImage"/>
        <cc:license rdf:resource="http://en.wikipedia.org/wiki/Public_domain"/>
        <dc:language>French</dc:language>
      </cc:Work>
    </rdf:RDF>
  </metadata>
  <defs id="defs4">
    <inkscape:perspective id="perspective83" inkscape:persp3d-origin="300 : 400 : 1" inkscape:vp_x="-50 : 600 : 1" inkscape:vp_y="0 : 1000 : 0" inkscape:vp_z="700 : 600 : 1" sodipodi:type="inkscape:persp3d"/>
    <inkscape:perspective id="perspective234" inkscape:persp3d-origin="300 : 400 : 1" inkscape:vp_x="-50 : 600 : 1" inkscape:vp_y="0 : 1000 : 0" inkscape:vp_z="700 : 600 : 1" sodipodi:type="inkscape:persp3d"/>
    <inkscape:perspective id="perspective233" inkscape:persp3d-origin="300 : 400 : 1" inkscape:vp_x="-50 : 600 : 1" inkscape:vp_y="0 : 1000 : 0" inkscape:vp_z="700 : 600 : 1" sodipodi:type="inkscape:persp3d"/>
    <inkscape:perspective id="perspective10" inkscape:persp3d-origin="300 : 400 : 1" inkscape:vp_x="-50 : 600 : 1" inkscape:vp_y="0 : 1000 : 0" inkscape:vp_z="700 : 600 : 1" sodipodi:type="inkscape:persp3d"/>
    <marker id="ArrowStart" markerHeight="3" markerUnits="strokeWidth" markerWidth="4" orient="auto" refX="10" refY="5" viewBox="0 0 10 10">
      <path d="M 10,0 L 0,5 L 10,10 L 10,0 z" id="path1463"/>
    </marker>
    <marker id="ArrowEnd" markerHeight="3" markerUnits="strokeWidth" markerWidth="4" orient="auto" refX="0" refY="5" viewBox="0 0 10 10">
      <path d="M 0,0 L 10,5 L 0,10 L 0,0 z" id="path1461"/>
    </marker>
    <inkscape:perspective id="perspective2379" inkscape:persp3d-origin="300 : 400 : 1" inkscape:vp_x="-50 : 600 : 1" inkscape:vp_y="0 : 1000 : 0" inkscape:vp_z="700 : 600 : 1" sodipodi:type="inkscape:persp3d"/>
    <inkscape:perspective id="perspective2416" inkscape:persp3d-origin="300 : 400 : 1" inkscape:vp_x="-50 : 600 : 1" inkscape:vp_y="0 : 1000 : 0" inkscape:vp_z="700 : 600 : 1" sodipodi:type="inkscape:persp3d"/>
    <marker id="marker2474" markerHeight="3" markerUnits="strokeWidth" markerWidth="4" orient="auto" refX="10" refY="5" viewBox="0 0 10 10">
      <path d="M 10,0 L 0,5 L 10,10 L 10,0 z" id="path6"/>
    </marker>
    <marker id="marker2471" markerHeight="3" markerUnits="strokeWidth" markerWidth="4" orient="auto" refX="0" refY="5" viewBox="0 0 10 10">
      <path d="M 0,0 L 10,5 L 0,10 L 0,0 z" id="path4"/>
    </marker>
    <inkscape:perspective id="perspective2468" inkscape:persp3d-origin="300 : 400 : 1" inkscape:vp_x="-50 : 600 : 1" inkscape:vp_y="0 : 1000 : 0" inkscape:vp_z="700 : 600 : 1" sodipodi:type="inkscape:persp3d"/>
    <marker id="marker2553" markerHeight="3" markerUnits="strokeWidth" markerWidth="4" orient="auto" refX="10" refY="5" viewBox="0 0 10 10">
      <path d="M 10,0 L 0,5 L 10,10 L 10,0 z" id="path2555"/>
    </marker>
    <marker id="marker2549" markerHeight="3" markerUnits="strokeWidth" markerWidth="4" orient="auto" refX="0" refY="5" viewBox="0 0 10 10">
      <path d="M 0,0 L 10,5 L 0,10 L 0,0 z" id="path2551"/>
    </marker>
    <inkscape:perspective id="perspective2546" inkscape:persp3d-origin="300 : 400 : 1" inkscape:vp_x="-50 : 600 : 1" inkscape:vp_y="0 : 1000 : 0" inkscape:vp_z="700 : 600 : 1" sodipodi:type="inkscape:persp3d"/>
    <marker id="marker2657" markerHeight="3" markerUnits="strokeWidth" markerWidth="4" orient="auto" refX="10" refY="5" viewBox="0 0 10 10">
      <path d="M 10,0 L 0,5 L 10,10 L 10,0 z" id="path2659"/>
    </marker>
    <marker id="marker2653" markerHeight="3" markerUnits="strokeWidth" markerWidth="4" orient="auto" refX="0" refY="5" viewBox="0 0 10 10">
      <path d="M 0,0 L 10,5 L 0,10 L 0,0 z" id="path2655"/>
    </marker>
    <inkscape:perspective id="perspective2650" inkscape:persp3d-origin="300 : 400 : 1" inkscape:vp_x="-50 : 600 : 1" inkscape:vp_y="0 : 1000 : 0" inkscape:vp_z="700 : 600 : 1" sodipodi:type="inkscape:persp3d"/>
    <marker id="marker2751" markerHeight="3" markerUnits="strokeWidth" markerWidth="4" orient="auto" refX="10" refY="5" viewBox="0 0 10 10">
      <path d="M 10,0 L 0,5 L 10,10 L 10,0 z" id="path2753"/>
    </marker>
    <marker id="marker2747" markerHeight="3" markerUnits="strokeWidth" markerWidth="4" orient="auto" refX="0" refY="5" viewBox="0 0 10 10">
      <path d="M 0,0 L 10,5 L 0,10 L 0,0 z" id="path2749"/>
    </marker>
    <inkscape:perspective id="perspective2744" inkscape:persp3d-origin="300 : 400 : 1" inkscape:vp_x="-50 : 600 : 1" inkscape:vp_y="0 : 1000 : 0" inkscape:vp_z="700 : 600 : 1" sodipodi:type="inkscape:persp3d"/>
    <marker id="marker2821" markerHeight="3" markerUnits="strokeWidth" markerWidth="4" orient="auto" refX="10" refY="5" viewBox="0 0 10 10">
      <path d="M 10,0 L 0,5 L 10,10 L 10,0 z" id="path2823"/>
    </marker>
    <marker id="marker2817" markerHeight="3" markerUnits="strokeWidth" markerWidth="4" orient="auto" refX="0" refY="5" viewBox="0 0 10 10">
      <path d="M 0,0 L 10,5 L 0,10 L 0,0 z" id="path2819"/>
    </marker>
    <inkscape:perspective id="perspective2814" inkscape:persp3d-origin="300 : 400 : 1" inkscape:vp_x="-50 : 600 : 1" inkscape:vp_y="0 : 1000 : 0" inkscape:vp_z="700 : 600 : 1" sodipodi:type="inkscape:persp3d"/>
    <inkscape:perspective id="perspective2868" inkscape:persp3d-origin="300 : 400 : 1" inkscape:vp_x="-50 : 600 : 1" inkscape:vp_y="0 : 1000 : 0" inkscape:vp_z="700 : 600 : 1" sodipodi:type="inkscape:persp3d"/>
    <marker id="marker2908" markerHeight="3" markerUnits="strokeWidth" markerWidth="4" orient="auto" refX="10" refY="5" viewBox="0 0 10 10">
      <path d="M 10,0 L 0,5 L 10,10 L 10,0 z" id="path1608"/>
    </marker>
    <marker id="marker2905" markerHeight="3" markerUnits="strokeWidth" markerWidth="4" orient="auto" refX="0" refY="5" viewBox="0 0 10 10">
      <path d="M 0,0 L 10,5 L 0,10 L 0,0 z" id="path1606"/>
    </marker>
    <inkscape:perspective id="perspective2902" inkscape:persp3d-origin="300 : 400 : 1" inkscape:vp_x="-50 : 600 : 1" inkscape:vp_y="0 : 1000 : 0" inkscape:vp_z="700 : 600 : 1" sodipodi:type="inkscape:persp3d"/>
    <marker id="marker2974" markerHeight="3" markerUnits="strokeWidth" markerWidth="4" orient="auto" refX="10" refY="5" viewBox="0 0 10 10">
      <path d="M 10,0 L 0,5 L 10,10 L 10,0 z" id="path2976"/>
    </marker>
    <marker id="marker2970" markerHeight="3" markerUnits="strokeWidth" markerWidth="4" orient="auto" refX="0" refY="5" viewBox="0 0 10 10">
      <path d="M 0,0 L 10,5 L 0,10 L 0,0 z" id="path2972"/>
    </marker>
    <inkscape:perspective id="perspective2967" inkscape:persp3d-origin="300 : 400 : 1" inkscape:vp_x="-50 : 600 : 1" inkscape:vp_y="0 : 1000 : 0" inkscape:vp_z="700 : 600 : 1" sodipodi:type="inkscape:persp3d"/>
    <marker id="marker3069" markerHeight="3" markerUnits="strokeWidth" markerWidth="4" orient="auto" refX="10" refY="5" viewBox="0 0 10 10">
      <path d="M 10,0 L 0,5 L 10,10 L 10,0 z" id="path3071"/>
    </marker>
    <marker id="marker3065" markerHeight="3" markerUnits="strokeWidth" markerWidth="4" orient="auto" refX="0" refY="5" viewBox="0 0 10 10">
      <path d="M 0,0 L 10,5 L 0,10 L 0,0 z" id="path3067"/>
    </marker>
    <inkscape:perspective id="perspective3062" inkscape:persp3d-origin="300 : 400 : 1" inkscape:vp_x="-50 : 600 : 1" inkscape:vp_y="0 : 1000 : 0" inkscape:vp_z="700 : 600 : 1" sodipodi:type="inkscape:persp3d"/>
  </defs>
  <sodipodi:namedview bordercolor="#666666" borderopacity="1.0" id="base" inkscape:current-layer="layer1" inkscape:cx="256.00992" inkscape:cy="421.11445" inkscape:document-units="px" inkscape:guide-bbox="true" inkscape:pageopacity="0.0" inkscape:pageshadow="2" inkscape:window-height="713" inkscape:window-width="1024" inkscape:window-x="0" inkscape:window-y="0" inkscape:zoom="0.49910993" pagecolor="#ffffff" showgrid="false" showguides="true">
    <sodipodi:guide id="guide3093" orientation="-0.70710678,0.70710678" position="-116.17232,1113.5541"/>
  </sodipodi:namedview>
  <g id="layer1" inkscape:groupmode="layer" inkscape:label="Calque 1" transform="translate(-196.31972,-408.65199)">
    <g id="g2479" transform="translate(196.31972,408.65199)">
      <path d="M 155.932,155.932 L 155.932,0 L 0,0 L 0,155.932 L 155.932,155.932 z" id="path2481" style="fill:#000000;stroke:none"/>
      <path d="M 150.83,150.83 L 150.83,5.1011 L 5.1011,5.1011 L 5.1011,150.83 L 150.83,150.83 z" id="path2483" style="fill:#ff9900;stroke:none"/>
    </g>
    <g id="g2495" inkscape:label="Layer 1" transform="matrix(0.457432,0,0,0.457432,426.40052,274.90019)"/>
    <g id="g1196" inkscape:label="Layer 1" transform="matrix(0.423446,0,0,0.423446,440.73162,291.24659)"/>
    <g id="g1189" transform="matrix(0.359436,0,0,0.359436,-30.64328,388.72208)">
      <path d="M 875.59375,131.78125 C 847.70744,139.79304 793.38623,148.73574 789.875,151.28125 L 782.48964,156.63536 C 779.04979,163.27904 780.35522,175.46868 786.44839,181.56232 C 798.75982,186.65528 850.40412,171.99884 883.3125,166.71875 C 881.28212,154.93573 878.39633,143.01324 875.59375,131.78125 z M 871.53125,139.5 L 877.625,161.03125 L 787.84375,161.03125 C 792.1429,152.95891 843.90545,146.81298 871.53125,139.5 z" id="path1765" sodipodi:nodetypes="cscccccccc" style="fill:#000000;stroke:none"/>
      <path d="M 86.1199,75.1935 C 85.780012,75.853164 84.908532,76.415862 84.1755,76.0035 C 81.020832,74.228862 84.8235,72.0343 84.4997,69.7667 C 84.9856,71.2247 87.157412,73.179864 86.1199,75.1935 z" id="path1767" sodipodi:nodetypes="cscs" style="fill:#000000;stroke:none" transform="matrix(5.015759,0,0,5.015759,457.4448,-161.6674)"/>
      <path d="M 735.03125,193.9375 C 731.37476,206.1268 728.68911,218.47823 726.64536,231.63518 C 748.99107,235.7388 776.05945,243.5299 799.625,248.8125 C 808.96836,252.06221 821.1569,251.65694 826.84375,241.09375 C 831.31379,232.15466 828.47087,221.59314 819.125,215.5 C 790.68615,208.5933 764.03399,203.45966 735.03125,193.9375 z M 739.09375,202.09375 C 766.38619,207.82398 792.31226,215.90577 819.125,223.21875 L 733.40625,223.21875 L 739.09375,202.09375 z" id="path1768" sodipodi:nodetypes="cccccccccc" style="fill:#000000;stroke:none"/>
      <path d="M 86.4436,89.6115 C 86.213815,90.403043 84.726582,90.425571 84.1755,90.0162 C 81.891682,88.319671 85.4714,85.8854 84.9045,83.3746 C 86.6057,84.9943 86.942815,87.891843 86.4436,89.6115 z" id="path1770" sodipodi:nodetypes="cscs" style="fill:#000000;stroke:none" transform="matrix(5.015759,0,0,5.015759,457.4448,-161.6674)"/>
      <path d="M 55.0159,90.0162 C 54.390662,90.571939 51.956982,90.556193 52.2619,89.2062 L 53.3962,84.1842 C 54.53,85.8854 56.577662,88.628039 55.0159,90.0162 z" id="path1771" sodipodi:nodetypes="cscs" style="fill:#000000;stroke:none" transform="matrix(5.015759,0,0,5.015759,457.4448,-161.6674)"/>
      <path d="M 113.335,97.3873 C 115.036,98.0353 117.223,97.63 119.167,97.7921 L 119.167,112.939 C 110.743,114.559 102.401,117.475 93.8952,114.073 C 88.6306,113.02 82.3127,114.802 77.5339,112.534 C 76.8323,110.916 77.9504,110.844 78.8572,110.504 C 79.383,110.426 79.8396,110.277 80.2878,110.185 C 90.7746,110.176 93.113,110.597 93.2751,110.354 C 93.0334,110.264 93.5217,109.134 93.0793,109.082 C 89.2678,108.635 77.7151,110.066 73.6433,108.463 C 73.0344,108.224 72.9636,108.022 72.6614,107.67 C 72.467,107.444 72.552,106.982 72.5119,106.702 L 72.8503,106.348 L 73.6931,106.267 L 92.9914,105.599 C 92.7961,105.509 93.1101,104.535 92.8835,104.483 C 91.258,104.111 71.0329,105.432 69.9553,104.331 C 69.5642,103.932 69.468,103.414 69.4875,102.494 C 69.7898,102.154 69.9983,101.944 70.3503,101.782 C 72.8132,100.651 89.7561,101.913 92.4319,101.289 C 93.0329,101.387 92.0022,101.139 92.4587,100.87 C 91.8186,100.687 78.9494,100.196 78.2458,100.125 C 76.4568,99.9435 74.634,99.8585 73.6457,98.5211 C 73.0788,96.82 75.0227,96.5773 75.9949,96.172 C 78.0198,95.6862 79.3967,97.063 81.4216,96.5773 C 81.3406,97.3873 81.5027,98.0353 82.2317,98.5211 C 84.9045,100.222 87.6584,97.3063 90.3313,96.5773 C 91.1413,96.4962 92.1135,96.901 92.6804,96.172 C 91.3035,95.2003 89.2785,93.9044 89.6023,91.9601 C 97.8645,93.0133 106.693,92.4464 113.335,97.3873 z" id="path1772" style="fill:#000000;stroke:none" transform="matrix(5.015759,0,0,5.015759,457.4448,-161.6674)"/>
      <path d="M 55.7449,99.736 C 55.715962,100.6608 53.860621,101.3748 53.072,100.465 C 51.754621,98.945198 53.1531,96.4152 53.801,94.6334 C 55.5022,95.9293 55.797062,98.068996 55.7449,99.736 z" id="path1773" sodipodi:nodetypes="cscs" style="fill:#000000;stroke:none" transform="matrix(5.015759,0,0,5.015759,457.4448,-161.6674)"/>
      <path d="M 50.3181,103.624 C 51.8572,106.702 55.5827,105.811 58.094,105.568 C 57.973433,102.65416 61.794664,103.47437 65.0598,103.42459 L 65.0598,109.051 L 37.844,109.051 L 37.844,103.624 L 50.3181,103.624 z" id="path1774" sodipodi:nodetypes="ccccccc" style="fill:#000000;stroke:none" transform="matrix(5.015759,0,0,5.015759,457.4448,-161.6674)"/>
    </g>
  </g>
</svg>

<svg xmlns="http://www.w3.org/2000/svg" viewBox="0 0 155.93 155.93"><g transform="translate(-196.32-408.65)"><g transform="translate(196.32 408.65)"><path d="m155.93 155.93v-155.93h-155.93v155.93h155.93"/><path d="m150.83 150.83v-145.73h-145.73v145.73h145.73" fill="#f90"/></g><g transform="matrix(.35944 0 0 .35944-30.643 388.72)"><path d="m875.59 131.78c-27.886 8.01-82.21 16.954-85.72 19.5l-7.385 5.354c-3.44 6.644-2.134 18.833 3.959 24.927 12.311 5.093 63.956-9.563 96.86-14.844-2.03-11.783-4.916-23.706-7.719-34.938m-4.063 7.719l6.094 21.531h-89.78c4.299-8.07 56.06-14.218 83.69-21.531"/><path d="m86.12 75.19c-.34.66-1.211 1.222-1.944.81-3.155-1.775.648-3.969.324-6.237.486 1.458 2.658 3.413 1.62 5.427" transform="matrix(5.0158 0 0 5.0158 457.44-161.67)"/><path d="m735.03 193.94c-3.656 12.189-6.342 24.541-8.386 37.698 22.346 4.104 49.41 11.895 72.98 17.18 9.343 3.25 21.532 2.844 27.22-7.719 4.47-8.939 1.627-19.501-7.719-25.594-28.439-6.907-55.09-12.04-84.09-21.563m4.063 8.156c27.29 5.73 53.22 13.812 80.03 21.12h-85.72l5.688-21.12"/><g transform="matrix(5.0158 0 0 5.0158 457.44-161.67)"><path d="m86.44 89.61c-.23.792-1.717.814-2.268.405-2.284-1.697 1.296-4.131.729-6.642 1.701 1.62 2.038 4.517 1.539 6.237"/><path d="m55.02 90.02c-.625.556-3.059.54-2.754-.81l1.134-5.02c1.134 1.701 3.181 4.444 1.62 5.832"/><path d="m113.33 97.39c1.701.648 3.888.243 5.832.405v15.15c-8.424 1.62-16.766 4.536-25.27 1.134-5.265-1.053-11.582.729-16.361-1.539-.702-1.618.416-1.69 1.323-2.03.526-.078.982-.227 1.431-.319 10.487-.009 12.825.412 12.987.169-.242-.09.247-1.22-.196-1.272-3.812-.447-15.364.984-19.436-.619-.609-.239-.68-.441-.982-.793-.194-.226-.109-.688-.15-.968l.338-.354.843-.081 19.298-.668c-.195-.09.119-1.064-.108-1.116-1.626-.372-21.851.949-22.928-.152-.391-.399-.487-.917-.468-1.837.302-.34.511-.55.863-.712 2.463-1.131 19.406.131 22.08-.493.601.098-.43-.15.027-.419-.64-.183-13.509-.674-14.213-.745-1.789-.181-3.612-.266-4.6-1.604-.567-1.701 1.377-1.944 2.349-2.349 2.025-.486 3.402.891 5.427.405-.081.81.081 1.458.81 1.944 2.673 1.701 5.427-1.215 8.1-1.944.81-.081 1.782.324 2.349-.405-1.377-.972-3.402-2.268-3.078-4.212 8.262 1.053 17.09.486 23.733 5.427"/><path d="m55.745 99.74c-.029.925-1.884 1.639-2.673.729-1.317-1.52.081-4.05.729-5.832 1.701 1.296 1.996 3.436 1.944 5.103"/><path d="m50.32 103.62c1.539 3.078 5.265 2.187 7.776 1.944-.121-2.914 3.701-2.094 6.966-2.143v5.626h-27.22v-5.427h12.474"/></g></g></g></svg>
